X: 66
T:Hela'r Sgyfarnog
T:Gwyl Ifan
M:6/8
L:1/8
Q:200
C:Trad
S:Blodau'r Grug Collection Vol. 2
R:Jig
A:Wales
Z:brian_martin12345@yahoo.com
K:C
c2C EFG|A2d BAB|c2C EFG|AcBc3:||
edc edc|edc edc|!dBc dBc|dfed3|c2C EFG|A2d BAB|c2C EFG|AcBc3||

